docs/images/card_playstore_v5.svg

<svg xmlns="http://www.w3.org/2000/svg" width="240" height="72" viewBox="0 0 240 72" role="img" aria-label="Get it on Google Play">
  <defs>
    <linearGradient id="gpBg" x1="0%" y1="0%" x2="100%" y2="100%">
      <stop offset="0%" stop-color="#2B2930"/>
      <stop offset="100%" stop-color="#141218"/>
    </linearGradient>
  </defs>
  <rect width="240" height="72" rx="20" fill="url(#gpBg)"/>
  <rect x="1" y="1" width="238" height="70" rx="19" fill="none" stroke="#938F99" stroke-opacity="0.45" stroke-width="1.5"/>
  <circle cx="46" cy="36" r="22" fill="#4A4458"/>
  <g transform="translate(34 24) scale(0.9)">
    <path fill="#EA4335" d="M1.5.7C.7 1.5.2 2.8.2 4.4v21.2c0 1.6.5 2.9 1.3 3.7l.1.1L15.7 15.3v-.6L1.6.6z"/>
    <path fill="#FBBC05" d="M19.7 18.8 15.7 14.7v-1.4l4-4.1.1.1 4.9 2.8c1.4.8 1.4 2.1 0 2.9l-4.9 3.8z"/>
    <path fill="#4285F4" d="M19.8 9.3 1.6.1C.9-.3.2.1.2 1.2L15.7 14.7z"/>
    <path fill="#34A853" d="M19.8 18.7 15.7 14.7.2 28.2c.3 1.1 1.1 1.3 1.9.8z"/>
  </g>
  <text x="84" y="29" font-family="Roboto, 'Google Sans', 'Segoe UI', system-ui, sans-serif" font-size="10" font-weight="600" letter-spacing="1.4" fill="#CAC4D0">GET IT ON</text>
  <text x="84" y="50" font-family="Roboto, 'Google Sans', 'Segoe UI', system-ui, sans-serif" font-size="20" font-weight="700" fill="#E6E1E5">Google Play</text>
</svg>

<svg xmlns="http://www.w3.org/2000/svg" viewBox="0 0 220 70" width="220" height="70">
  <defs>
    <linearGradient id="card-grad" x1="0%" y1="0%" x2="100%" y2="100%">
      <stop offset="0%" stop-color="#0f172a"/>
      <stop offset="100%" stop-color="#020617"/>
    </linearGradient>
  </defs>
  <!-- Card Outer -->
  <rect width="220" height="70" rx="8" fill="url(#card-grad)" stroke="#1e293b" stroke-width="1.2"/>
  <!-- Google Play Icon -->
  <g transform="translate(14, 18) scale(1.05)">
    <path d="M 1.5,0.7 C 0.7,1.5 0.2,2.8 0.2,4.4 L 0.2,25.6 C 0.2,27.2 0.7,28.5 1.5,29.3 L 1.6,29.4 L 15.7,15.3 L 15.7,14.7 L 1.6,0.6 L 1.5,0.7 Z" fill="#EA4335"/>
    <path d="M 19.7,18.8 L 15.7,14.7 L 15.7,13.3 L 19.7,9.2 L 19.8,9.3 L 24.7,12.1 C 26.1,12.9 26.1,14.2 24.7,15.0 L 19.8,18.8 Z" fill="#FBBC05"/>
    <path d="M 19.8,9.3 L 1.6,0.1 C 0.9,-0.3 0.2,0.1 0.2,1.2 L 15.7,14.7 L 19.8,9.3 Z" fill="#4285F4"/>
    <path d="M 19.8,18.7 L 15.7,14.7 L 0.2,28.2 C 0.5,29.3 1.3,29.5 2.1,29.0 L 19.8,18.7 Z" fill="#34A853"/>
  </g>
  <!-- Vertical Divider (Thicker, Lighter, Shifted right) -->
  <line x1="52" y1="16" x2="52" y2="54" stroke="#334155" stroke-width="1.5"/>
  <!-- Text Elements (Centered in the text region) -->
  <g fill="#FFFFFF" font-family="-apple-system, BlinkMacSystemFont, 'Segoe UI', Roboto, Helvetica, Arial, sans-serif">
    <text x="136" y="28" text-anchor="middle" font-size="8" font-weight="600" fill="#94a3b8" letter-spacing="0.6">COMING SOON ON</text>
    <text x="136" y="48" text-anchor="middle" font-size="16" font-weight="700" fill="#ffffff" letter-spacing="0.2">Google Play</text>
  </g>
</svg>
